world_stage/static/flags/rect/qat.svg

<svg height="400" viewBox="0 0 600 400" width="600" xmlns="http://www.w3.org/2000/svg"><path d="m0 0h450v300h-450z" fill="#8d1b3d" transform="matrix(1.3333333 0 0 -1.3333333 0 400)"/><path d="m0 0v-300h133.17l49.83 16.657-49.83 16.687 49.83 16.657-49.83 16.655 49.83 16.688-49.83 16.656 49.83 16.657-49.83 16.687 49.83 16.657-49.83 16.656 49.83 16.687-49.83 16.656 49.83 16.656-49.83 16.688 49.83 16.657-49.83 16.656 49.83 16.687-49.83 16.656z" fill="#fff" transform="matrix(1.3333333 0 0 -1.3333333 0 .0004)"/></svg>

<?xml version="1.0" encoding="UTF-8" standalone="no"?>
<!-- Created with Inkscape (http://www.inkscape.org/) -->

<svg
   version="1.1"
   id="svg1"
   width="600"
   height="400"
   viewBox="0 0 600 400"
   sodipodi:docname="qa.ai"
   xmlns:inkscape="http://www.inkscape.org/namespaces/inkscape"
   xmlns:sodipodi="http://sodipodi.sourceforge.net/DTD/sodipodi-0.dtd"
   xmlns="http://www.w3.org/2000/svg"
   xmlns:svg="http://www.w3.org/2000/svg">
  <defs
     id="defs1" />
  <sodipodi:namedview
     id="namedview1"
     pagecolor="#ffffff"
     bordercolor="#000000"
     borderopacity="0.25"
     inkscape:showpageshadow="2"
     inkscape:pageopacity="0.0"
     inkscape:pagecheckerboard="0"
     inkscape:deskcolor="#d1d1d1">
    <inkscape:page
       x="0"
       y="0"
       inkscape:label="1"
       id="page1"
       width="600"
       height="400"
       margin="0"
       bleed="0" />
  </sodipodi:namedview>
  <g
     id="layer-MC0"
     inkscape:groupmode="layer"
     inkscape:label="Layer 1">
    <path
       id="path1"
       d="M 0,0 H 450 V 300 H 0 Z"
       style="fill:#8d1b3d;fill-opacity:1;fill-rule:nonzero;stroke:none"
       transform="matrix(1.3333333,0,0,-1.3333333,0,400)" />
    <path
       id="path2"
       d="m 0,0 v -300 h 133.17 l 49.83,16.657 -49.83,16.687 49.83,16.657 -49.83,16.655 49.83,16.688 -49.83,16.656 49.83,16.657 -49.83,16.687 49.83,16.657 -49.83,16.656 L 183,-116.656 133.17,-100 183,-83.344 133.17,-66.656 183,-49.999 133.17,-33.343 183,-16.656 133.17,0 Z"
       style="fill:#ffffff;fill-opacity:1;fill-rule:nonzero;stroke:none"
       transform="matrix(1.3333333,0,0,-1.3333333,0,4e-4)" />
  </g>
</svg>
